Origami/64x64/apps/manaplus.svg

<svg width="64" height="64" version="1.1" viewBox="0 0 64 64" xmlns="http://www.w3.org/2000/svg">
 <path d="M 32,5 A 28,28 0 0 0 4,33 28,28 0 0 0 32,61 28,28 0 0 0 60,33 28,28 0 0 0 32,5 Z" style="opacity:.2"/>
 <path d="M 32,4 A 28,28 0 0 0 4,32 28,28 0 0 0 32,60 28,28 0 0 0 60,32 28,28 0 0 0 32,4 Z" style="fill:#d66829"/>
 <path d="m22 24.957272c-2.89003 0-5.119595 1.455206-6.292969 2.847656-1.173373 1.39245-1.59375 2.902344-1.59375 2.902344a3.0003 3.0003 0 0 0 -0.113281 0.808594v14.441406a3.0003 3.0003 0 1 0 6 0v-13.8125c0.04138-0.10034 0.05764-0.19338 0.292968-0.472656 0.326628-0.38761 0.597062-0.714844 1.707032-0.714844 2.279024 0 2.135134 0.38567 2.019532 0.238282a3.0003 3.0003 0 0 0 -0.019532 0.320312v14.441406a3.0003 3.0003 0 0 0 0.0118 0.300782 3.0003 3.0003 0 0 0 0.10938 0.585936 3.0003 3.0003 0 0 0 0.226562 0.558594 3.0003 3.0003 0 0 0 0.15234 0.257812 3.0003 3.0003 0 0 0 0.17968 0.238282 3.0003 3.0003 0 0 0 0.19922 0.222656 3.0003 3.0003 0 0 0 0.222656 0.203126 3.0003 3.0003 0 0 0 0.773438 0.45703 3.0003 3.0003 0 0 0 0.871094 0.207032 3.0003 3.0003 0 0 0 0.89453 -0.0586 3.0003 3.0003 0 0 0 0.570314 -0.1836 3.0003 3.0003 0 0 0 1.167968 -0.917968 3.0003 3.0003 0 0 0 0.316406 -0.507812 3.0003 3.0003 0 0 0 0.304612 -1.36327v-13.8125c0.04138-0.10032 0.05766-0.1934 0.292968-0.472656 0.326588-0.38758 0.597062-0.714844 1.707032-0.714844s1.380404 0.327234 1.707032 0.714844c0.235332 0.27927 0.251586 0.372324 0.292968 0.472656v13.8125a3.0003 3.0003 0 1 0 6 0v-14.441406a3.0003 3.0003 0 0 0 -0.11328 -0.808594s-0.420376-1.509894-1.59375-2.902344-3.40294-2.847656-6.29297-2.847656c-1.93465 0-3.412398 0.713844-4.636718 1.5625-1.372038-0.902326-3.07503-1.5625-5.363282-1.5625z" style="opacity:.2"/>
 <path d="m27.00014 45v-14.43988s0.99986-3.56012 4.99986-3.56012 5 3.56012 5 3.56012v14.43988m-20 0v-14.43988s1-3.56012 5-3.56012c6 0 4.99986 3.56012 4.99986 3.56012v14.43988" style="fill:none;stroke-linecap:round;stroke-linejoin:round;stroke-width:6;stroke:#f8bf94"/>
 <path d="m46 15c-1.108 0-2 0.892-2 2v4h-4c-1.108 0-2 0.892-2 2s0.892 2 2 2h4v4c0 1.108 0.892 2 2 2s2-0.892 2-2v-4h4c1.108 0 2-0.892 2-2s-0.892-2-2-2h-4v-4c0-1.108-0.892-2-2-2z" style="opacity:.2"/>
 <rect transform="rotate(90)" x="20" y="-54" width="4" height="16" rx="2" ry="2" style="fill:#ffffff"/>
 <rect transform="scale(-1)" x="-48" y="-30" width="4" height="16" rx="2" ry="2" style="fill:#ffffff"/>
 <path d="M 32 4 A 28 28 0 0 0 4 32 A 28 28 0 0 0 4.0214844 32.40625 A 28 28 0 0 1 32 5 A 28 28 0 0 1 59.978516 32.578125 A 28 28 0 0 0 60 32 A 28 28 0 0 0 32 4 z" style="fill:#ffffff;opacity:.2"/>
 <path d="m22 23.957031c-2.89003 0-5.119595 1.455206-6.292969 2.847657-1.173373 1.39245-1.59375 2.902343-1.59375 2.902343a3.0003 3.0003 0 0 0 -0.113281 0.808594v1a3.0003 3.0003 0 0 1 0.113281 -0.808594s0.420377-1.509893 1.59375-2.902343c1.173374-1.392451 3.402939-2.847657 6.292969-2.847657 2.288252 0 3.991243 0.660174 5.363281 1.5625 1.22432-0.848656 2.702069-1.5625 4.636719-1.5625 2.89003 0 5.119595 1.455206 6.292969 2.847657 1.173374 1.39245 1.59375 2.902343 1.59375 2.902343a3.0003 3.0003 0 0 1 0.113281 0.808594v-1a3.0003 3.0003 0 0 0 -0.113281 -0.808594s-0.420376-1.509893-1.59375-2.902343c-1.173374-1.392451-3.402939-2.847657-6.292969-2.847657-1.93465 0-3.412399 0.713844-4.636719 1.5625-1.372038-0.902326-3.075029-1.5625-5.363281-1.5625zm2 7.22461v0.3125a3.0003 3.0003 0 0 1 0.019531 -0.298829c0.041593 0.053029 0.045717 0.028518-0.019531-0.013671z" style="fill:#ffffff;opacity:.1"/>
</svg>

<svg xmlns="http://www.w3.org/2000/svg" width="64" height="64" version="1.1" viewBox="0 0 64 64">
 <path style="opacity:0.2" d="M 32,5 A 28,28 0 0 0 4,33 28,28 0 0 0 32,61 28,28 0 0 0 60,33 28,28 0 0 0 32,5 Z"/>
 <path style="fill:#d66829" d="M 32,4 A 28,28 0 0 0 4,32 28,28 0 0 0 32,60 28,28 0 0 0 60,32 28,28 0 0 0 32,4 Z"/>
 <path style="opacity:0.2" d="m 22,24.957272 c -2.89003,0 -5.119595,1.455206 -6.292969,2.847656 -1.173373,1.39245 -1.59375,2.902344 -1.59375,2.902344 A 3.0003,3.0003 0 0 0 14,31.515866 v 14.441406 a 3.0003,3.0003 0 1 0 6,0 v -13.8125 c 0.04138,-0.10034 0.05764,-0.19338 0.292968,-0.472656 0.326628,-0.38761 0.597062,-0.714844 1.707032,-0.714844 2.279024,0 2.135134,0.38567 2.019532,0.238282 A 3.0003,3.0003 0 0 0 24,31.515866 v 14.441406 a 3.0003,3.0003 0 0 0 0.0118,0.300782 3.0003,3.0003 0 0 0 0.10938,0.585936 3.0003,3.0003 0 0 0 0.226562,0.558594 3.0003,3.0003 0 0 0 0.15234,0.257812 3.0003,3.0003 0 0 0 0.17968,0.238282 3.0003,3.0003 0 0 0 0.19922,0.222656 3.0003,3.0003 0 0 0 0.222656,0.203126 3.0003,3.0003 0 0 0 0.773438,0.45703 3.0003,3.0003 0 0 0 0.871094,0.207032 3.0003,3.0003 0 0 0 0.89453,-0.0586 3.0003,3.0003 0 0 0 0.570314,-0.1836 3.0003,3.0003 0 0 0 1.167968,-0.917968 3.0003,3.0003 0 0 0 0.316406,-0.507812 A 3.0003,3.0003 0 0 0 30,45.957272 v -13.8125 c 0.04138,-0.10032 0.05766,-0.1934 0.292968,-0.472656 0.326588,-0.38758 0.597062,-0.714844 1.707032,-0.714844 1.10997,0 1.380404,0.327234 1.707032,0.714844 0.235332,0.27927 0.251586,0.372324 0.292968,0.472656 v 13.8125 a 3.0003,3.0003 0 1 0 6,0 V 31.515866 a 3.0003,3.0003 0 0 0 -0.11328,-0.808594 c 0,0 -0.420376,-1.509894 -1.59375,-2.902344 C 37.119596,26.412478 34.89003,24.957272 32,24.957272 c -1.93465,0 -3.412398,0.713844 -4.636718,1.5625 -1.372038,-0.902326 -3.07503,-1.5625 -5.363282,-1.5625 z"/>
 <path style="fill:none;stroke:#f8bf94;stroke-width:6;stroke-linecap:round;stroke-linejoin:round" d="M 27.00014,45 V 30.56012 C 27.00014,30.56012 28,27 32,27 c 4,0 5,3.56012 5,3.56012 V 45 M 17,45 V 30.56012 c 0,0 1,-3.56012 5,-3.56012 6,0 4.99986,3.56012 4.99986,3.56012 V 45"/>
 <path style="opacity:0.2" d="m 46,15 c -1.108,0 -2,0.892 -2,2 v 4 h -4 c -1.108,0 -2,0.892 -2,2 0,1.108 0.892,2 2,2 h 4 v 4 c 0,1.108 0.892,2 2,2 1.108,0 2,-0.892 2,-2 v -4 h 4 c 1.108,0 2,-0.892 2,-2 0,-1.108 -0.892,-2 -2,-2 h -4 v -4 c 0,-1.108 -0.892,-2 -2,-2 z"/>
 <rect style="fill:#ffffff" width="4" height="16" x="20" y="-54" rx="2" ry="2" transform="rotate(90)"/>
 <rect style="fill:#ffffff" width="4" height="16" x="-48" y="-30" rx="2" ry="2" transform="scale(-1)"/>
 <path style="opacity:0.2;fill:#ffffff" d="M 32 4 A 28 28 0 0 0 4 32 A 28 28 0 0 0 4.0214844 32.40625 A 28 28 0 0 1 32 5 A 28 28 0 0 1 59.978516 32.578125 A 28 28 0 0 0 60 32 A 28 28 0 0 0 32 4 z"/>
 <path style="opacity:0.1;fill:#ffffff" d="M 22 23.957031 C 19.10997 23.957031 16.880405 25.412237 15.707031 26.804688 C 14.533658 28.197138 14.113281 29.707031 14.113281 29.707031 A 3.0003 3.0003 0 0 0 14 30.515625 L 14 31.515625 A 3.0003 3.0003 0 0 1 14.113281 30.707031 C 14.113281 30.707031 14.533658 29.197138 15.707031 27.804688 C 16.880405 26.412237 19.10997 24.957031 22 24.957031 C 24.288252 24.957031 25.991243 25.617205 27.363281 26.519531 C 28.587601 25.670875 30.06535 24.957031 32 24.957031 C 34.89003 24.957031 37.119595 26.412237 38.292969 27.804688 C 39.466343 29.197138 39.886719 30.707031 39.886719 30.707031 A 3.0003 3.0003 0 0 1 40 31.515625 L 40 30.515625 A 3.0003 3.0003 0 0 0 39.886719 29.707031 C 39.886719 29.707031 39.466343 28.197138 38.292969 26.804688 C 37.119595 25.412237 34.89003 23.957031 32 23.957031 C 30.06535 23.957031 28.587601 24.670875 27.363281 25.519531 C 25.991243 24.617205 24.288252 23.957031 22 23.957031 z M 24 31.181641 L 24 31.494141 A 3.0003 3.0003 0 0 1 24.019531 31.195312 C 24.061124 31.248341 24.065248 31.22383 24 31.181641 z"/>
</svg>
